X: 49
T:Portsmouth
M:4/4
L:1/4
R:Reel
N:http://www.lesession.co.uk
Z:Steve Mansfield 1998-2001
K:G
D | G>A B/A/G/F/ | E2 e2 | dB c/B/A/G/ | A3 D | 
G>A B/A/G/F/ | E2 e2 | dB c/B/A/B/ | G3 :: d | 
g>a b/a/g/f/ | gd Bd | gd c/B/A/G/ | A3 D | 
G>A B/A/G/F/ | E2 e2 | dB c/B/A/B/ | G3 :|
<end>
<start>
